X:7711
T:Jack Broke Da Prison Door
M:4/4
L:1/8
Q:1/4=220
C:Trad Shetland
R:reel
B:Fiddler's Fake Book
K:G
"G"G2 BG "(Em)"BdBG|"(Am)"cBAB "D"dBAB|"G"G2 BG "(Em)"BdBG|[1"D(Am)"ABAG
 E2 DE/2F/2:|[2"D"ABAG E2 DG||!
"G"g2 gd edBG|"G"g2 gd "D"eaaf|"G"g2 gd "(Em)"edBG|[1"(Am)"ABAG "(D)"E2
DG:|[2"(Am)"ABAG "(D)"E2 D2||!
